TrafficJam2023/images/main-page/banner-block-mobile.svg

<svg width="320" height="135" viewBox="0 0 320 135" fill="none" xmlns="http://www.w3.org/2000/svg">
<g filter="url(#filter0_b_187_1337)">
<path d="M0 28.3137V127C0 131.418 3.58172 135 8 135H270.5H287.686C289.808 135 291.843 134.157 293.343 132.657L317.657 108.343C319.157 106.843 320 104.808 320 102.686V8C320 3.58172 316.418 0 312 0H28.3137C26.192 0 24.1571 0.842855 22.6569 2.34315L2.34315 22.6569C0.842856 24.1571 0 26.192 0 28.3137Z" fill="#000210" fill-opacity="0.1"/>
<path d="M0.75 127V28.3137C0.75 26.3909 1.51384 24.5468 2.87348 23.1872L23.1872 2.87348C24.5468 1.51384 26.3909 0.75 28.3137 0.75H312C316.004 0.75 319.25 3.99594 319.25 8V102.686C319.25 104.609 318.486 106.453 317.127 107.813L292.813 132.127C291.453 133.486 289.609 134.25 287.686 134.25H270.5H8C3.99594 134.25 0.75 131.004 0.75 127Z" stroke="#6B6B6B" stroke-width="1.5"/>
</g>
<path d="M20.7 30H51.34V36H39.42V60H32.62V36H20.7V30ZM76.1513 60L67.1113 48.6H61.8913V60H55.1113V30H72.1913C74.3646 30 76.2846 30.3933 77.9513 31.18C79.6179 31.9533 80.9113 33.0467 81.8313 34.46C82.7513 35.8733 83.2113 37.5 83.2113 39.34C83.2113 40.9133 82.8646 42.3333 82.1713 43.6C81.4779 44.8667 80.4913 45.9133 79.2113 46.74C77.9446 47.5667 76.4579 48.12 74.7513 48.4L84.1113 60H76.1513ZM61.8913 35.36V43.32H71.3713C72.9179 43.32 74.1313 42.9667 75.0113 42.26C75.9046 41.5533 76.3513 40.58 76.3513 39.34C76.3513 38.1 75.9046 37.1267 75.0113 36.42C74.1313 35.7133 72.9179 35.36 71.3713 35.36H61.8913ZM121.569 60H114.329L111.489 53.68H94.8494L92.0094 60H84.7694L98.7894 30H107.549L121.569 60ZM103.169 35.22L97.3494 48.16H109.009L103.169 35.22ZM150.459 30V35.82H131.579V42.7H149.759V48.52H131.579V60H124.799V30H150.459ZM180.693 30V35.82H161.813V42.7H179.993V48.52H161.813V60H155.033V30H180.693ZM185.268 60V30H192.048V60H185.268ZM230.677 47.78C230.384 50.3133 229.497 52.5533 228.017 54.5C226.537 56.4333 224.584 57.9333 222.157 59C219.731 60.0667 216.984 60.6 213.917 60.6C210.517 60.6 207.517 59.9533 204.917 58.66C202.331 57.3533 200.324 55.52 198.897 53.16C197.471 50.8 196.757 48.08 196.757 45C196.757 41.92 197.471 39.2 198.897 36.84C200.324 34.48 202.331 32.6533 204.917 31.36C207.517 30.0533 210.517 29.4 213.917 29.4C216.984 29.4 219.731 29.9333 222.157 31C224.584 32.0667 226.537 33.5733 228.017 35.52C229.497 37.4533 230.384 39.6867 230.677 42.22H223.857C223.577 40.8067 222.997 39.5867 222.117 38.56C221.251 37.52 220.117 36.7267 218.717 36.18C217.317 35.62 215.711 35.34 213.897 35.34C211.804 35.34 209.984 35.7333 208.437 36.52C206.904 37.3067 205.717 38.4267 204.877 39.88C204.051 41.3333 203.637 43.04 203.637 45C203.637 46.96 204.051 48.6667 204.877 50.12C205.717 51.5733 206.904 52.6933 208.437 53.48C209.984 54.2667 211.804 54.66 213.897 54.66C216.644 54.66 218.884 54.06 220.617 52.86C222.364 51.66 223.444 49.9667 223.857 47.78H230.677ZM20.86 93.44H27.52V94.6C27.52 97.2533 28.1 99.26 29.26 100.62C30.4333 101.98 32.2933 102.66 34.84 102.66C37.3467 102.66 39.2 102.013 40.4 100.72C41.6 99.4133 42.2 97.5333 42.2 95.08V78H48.98V95.4C48.98 98.1867 48.3933 100.573 47.22 102.56C46.0467 104.533 44.3933 106.033 42.26 107.06C40.14 108.087 37.6667 108.6 34.84 108.6C32.04 108.6 29.5867 108.073 27.48 107.02C25.3867 105.967 23.76 104.427 22.6 102.4C21.4533 100.373 20.88 97.9333 20.88 95.08L20.86 93.44ZM87.0772 108H79.8372L76.9972 101.68H60.3572L57.5172 108H50.2772L64.2972 78H73.0572L87.0772 108ZM68.6772 83.22L62.8572 96.16H74.5172L68.6772 83.22ZM111.387 101.5L121.967 78H132.407V108H125.947V84.08L114.867 108H107.847L96.7666 84.18V108H90.3066V78H100.747L111.387 101.5ZM158.322 102.52H176.522V108H147.722V103.2L160.542 95.7C162.742 94.3933 164.422 93.3067 165.582 92.44C166.756 91.5733 167.596 90.76 168.102 90C168.609 89.24 168.862 88.4133 168.862 87.52C168.862 86.5867 168.602 85.76 168.082 85.04C167.576 84.32 166.809 83.76 165.782 83.36C164.769 82.9467 163.529 82.74 162.062 82.74C159.516 82.74 157.589 83.28 156.282 84.36C154.976 85.4267 154.229 86.8267 154.042 88.56H147.262C147.422 86.32 148.162 84.36 149.482 82.68C150.802 80.9867 152.569 79.6867 154.782 78.78C157.009 77.86 159.516 77.4 162.302 77.4C164.929 77.4 167.249 77.8133 169.262 78.64C171.289 79.4533 172.856 80.6 173.962 82.08C175.082 83.5467 175.642 85.24 175.642 87.16C175.642 88.6667 175.256 90.06 174.482 91.34C173.722 92.62 172.509 93.9 170.842 95.18C169.176 96.4467 166.922 97.84 164.082 99.36L158.322 102.52ZM196.403 108.6C193.096 108.6 190.21 107.953 187.743 106.66C185.276 105.367 183.376 103.547 182.043 101.2C180.71 98.84 180.043 96.1067 180.043 93C180.043 89.8933 180.71 87.1667 182.043 84.82C183.376 82.46 185.276 80.6333 187.743 79.34C190.21 78.0467 193.096 77.4 196.403 77.4C199.696 77.4 202.57 78.0467 205.023 79.34C207.49 80.6333 209.39 82.46 210.723 84.82C212.056 87.1667 212.723 89.8933 212.723 93C212.723 96.1067 212.056 98.84 210.723 101.2C209.39 103.547 207.49 105.367 205.023 106.66C202.57 107.953 199.696 108.6 196.403 108.6ZM196.403 103.06C198.39 103.06 200.096 102.667 201.523 101.88C202.95 101.08 204.036 99.9267 204.783 98.42C205.543 96.9133 205.923 95.1067 205.923 93C205.923 90.8933 205.543 89.0867 204.783 87.58C204.036 86.0733 202.95 84.9267 201.523 84.14C200.096 83.34 198.39 82.94 196.403 82.94C194.39 82.94 192.663 83.3333 191.223 84.12C189.796 84.9067 188.703 86.0533 187.943 87.56C187.196 89.0667 186.823 90.88 186.823 93C186.823 95.12 187.196 96.9333 187.943 98.44C188.703 99.9467 189.796 101.093 191.223 101.88C192.663 102.667 194.39 103.06 196.403 103.06ZM227.15 102.52H245.35V108H216.55V103.2L229.37 95.7C231.57 94.3933 233.25 93.3067 234.41 92.44C235.584 91.5733 236.424 90.76 236.93 90C237.437 89.24 237.69 88.4133 237.69 87.52C237.69 86.5867 237.43 85.76 236.91 85.04C236.404 84.32 235.637 83.76 234.61 83.36C233.597 82.9467 232.357 82.74 230.89 82.74C228.344 82.74 226.417 83.28 225.11 84.36C223.804 85.4267 223.057 86.8267 222.87 88.56H216.09C216.25 86.32 216.99 84.36 218.31 82.68C219.63 80.9867 221.397 79.6867 223.61 78.78C225.837 77.86 228.344 77.4 231.13 77.4C233.757 77.4 236.077 77.8133 238.09 78.64C240.117 79.4533 241.684 80.6 242.79 82.08C243.91 83.5467 244.47 85.24 244.47 87.16C244.47 88.6667 244.084 90.06 243.31 91.34C242.55 92.62 241.337 93.9 239.67 95.18C238.004 96.4467 235.75 97.84 232.91 99.36L227.15 102.52ZM270.851 92.46C273.131 92.8733 274.885 93.6667 276.111 94.84C277.351 96 277.971 97.4933 277.971 99.32C277.971 101.133 277.398 102.74 276.251 104.14C275.118 105.54 273.458 106.633 271.271 107.42C269.098 108.207 266.498 108.6 263.471 108.6C260.485 108.6 257.865 108.18 255.611 107.34C253.371 106.487 251.618 105.287 250.351 103.74C249.085 102.18 248.405 100.36 248.311 98.28H255.091C255.318 99.9067 256.125 101.147 257.511 102C258.911 102.84 260.898 103.26 263.471 103.26C265.951 103.26 267.838 102.873 269.131 102.1C270.425 101.327 271.071 100.233 271.071 98.82C271.071 97.98 270.845 97.2867 270.391 96.74C269.951 96.1933 269.218 95.78 268.191 95.5C267.178 95.22 265.805 95.08 264.071 95.08H258.771V90.32H264.071C266.271 90.32 267.885 89.9933 268.911 89.34C269.938 88.6867 270.451 87.7733 270.451 86.6C270.451 85.36 269.885 84.4067 268.751 83.74C267.631 83.0733 265.951 82.74 263.711 82.74C261.418 82.74 259.611 83.1467 258.291 83.96C256.971 84.7733 256.178 85.94 255.911 87.46H249.111C249.271 85.5667 249.958 83.86 251.171 82.34C252.385 80.8067 254.085 79.6 256.271 78.72C258.471 77.84 261.071 77.4 264.071 77.4C266.725 77.4 269.051 77.7467 271.051 78.44C273.051 79.12 274.591 80.0867 275.671 81.34C276.765 82.5933 277.311 84.04 277.311 85.68C277.311 87.2933 276.765 88.7 275.671 89.9C274.591 91.0867 272.985 91.94 270.851 92.46Z" fill="#FDFDFD"/>
<defs>
<filter id="filter0_b_187_1337" x="-11" y="-11" width="342" height="157" filterUnits="userSpaceOnUse" color-interpolation-filters="sRGB">
<feFlood flood-opacity="0" result="BackgroundImageFix"/>
<feGaussianBlur in="BackgroundImageFix" stdDeviation="5.5"/>
<feComposite in2="SourceAlpha" operator="in" result="effect1_backgroundBlur_187_1337"/>
<feBlend mode="normal" in="SourceGraphic" in2="effect1_backgroundBlur_187_1337" result="shape"/>
</filter>
</defs>
</svg>

<svg xmlns="http://www.w3.org/2000/svg" width="320" height="135" fill="none" viewBox="0 0 320 135"><g filter="url(#a)"><path fill="#000210" fill-opacity="0.1" d="M0 28.314V127a8 8 0 0 0 8 8h279.686a8 8 0 0 0 5.657-2.343l24.314-24.314a8 8 0 0 0 2.343-5.657V8a8 8 0 0 0-8-8H28.314a8 8 0 0 0-5.657 2.343L2.343 22.657A8 8 0 0 0 0 28.314Z"/><path stroke="#6B6B6B" stroke-width="1.5" d="M.75 127V28.314a7.25 7.25 0 0 1 2.123-5.127L23.187 2.873A7.25 7.25 0 0 1 28.314.75H312A7.25 7.25 0 0 1 319.25 8v94.686a7.254 7.254 0 0 1-2.123 5.127l-24.314 24.314a7.254 7.254 0 0 1-5.127 2.123H8A7.25 7.25 0 0 1 .75 127Z"/></g><path fill="#FDFDFD" d="M20.7 30h30.64v6H39.42v24h-6.8V36H20.7v-6Zm55.451 30-9.04-11.4h-5.22V60h-6.78V30h17.08c2.174 0 4.094.393 5.76 1.18 1.667.773 2.96 1.867 3.88 3.28.92 1.413 1.38 3.04 1.38 4.88 0 1.573-.346 2.993-1.04 4.26-.693 1.267-1.68 2.313-2.96 3.14-1.266.827-2.753 1.38-4.46 1.66l9.36 11.6h-7.96Zm-14.26-24.64v7.96h9.48c1.547 0 2.76-.353 3.64-1.06.894-.707 1.34-1.68 1.34-2.92s-.446-2.213-1.34-2.92c-.88-.707-2.093-1.06-3.64-1.06h-9.48ZM121.57 60h-7.24l-2.84-6.32H94.85L92.01 60h-7.24l14.02-30h8.76l14.02 30Zm-18.4-24.78-5.82 12.94h11.66l-5.84-12.94ZM150.46 30v5.82h-18.88v6.88h18.18v5.82h-18.18V60h-6.78V30h25.66Zm30.234 0v5.82h-18.88v6.88h18.18v5.82h-18.18V60h-6.78V30h25.66Zm4.575 30V30h6.78v30h-6.78Zm45.409-12.22c-.293 2.533-1.18 4.773-2.66 6.72-1.48 1.933-3.433 3.433-5.86 4.5-2.426 1.067-5.173 1.6-8.24 1.6-3.4 0-6.4-.647-9-1.94-2.586-1.307-4.593-3.14-6.02-5.5-1.426-2.36-2.14-5.08-2.14-8.16s.714-5.8 2.14-8.16c1.427-2.36 3.434-4.187 6.02-5.48 2.6-1.307 5.6-1.96 9-1.96 3.067 0 5.814.533 8.24 1.6 2.427 1.067 4.38 2.573 5.86 4.52 1.48 1.933 2.367 4.167 2.66 6.7h-6.82c-.28-1.413-.86-2.633-1.74-3.66-.866-1.04-2-1.833-3.4-2.38-1.4-.56-3.006-.84-4.82-.84-2.093 0-3.913.393-5.46 1.18-1.533.787-2.72 1.907-3.56 3.36-.826 1.453-1.24 3.16-1.24 5.12s.414 3.667 1.24 5.12c.84 1.453 2.027 2.573 3.56 3.36 1.547.787 3.367 1.18 5.46 1.18 2.747 0 4.987-.6 6.72-1.8 1.747-1.2 2.827-2.893 3.24-5.08h6.82ZM20.86 93.44h6.66v1.16c0 2.653.58 4.66 1.74 6.02 1.173 1.36 3.033 2.04 5.58 2.04 2.507 0 4.36-.647 5.56-1.94 1.2-1.307 1.8-3.187 1.8-5.64V78h6.78v17.4c0 2.787-.587 5.173-1.76 7.16-1.173 1.973-2.827 3.473-4.96 4.5-2.12 1.027-4.593 1.54-7.42 1.54-2.8 0-5.253-.527-7.36-1.58a11.412 11.412 0 0 1-4.88-4.62c-1.147-2.027-1.72-4.467-1.72-7.32l-.02-1.64ZM87.077 108h-7.24l-2.84-6.32h-16.64l-2.84 6.32h-7.24l14.02-30h8.76l14.02 30Zm-18.4-24.78-5.82 12.94h11.66l-5.84-12.94Zm42.71 18.28 10.58-23.5h10.44v30h-6.46V84.08L114.867 108h-7.02l-11.08-23.82V108h-6.46V78h10.44l10.64 23.5Zm46.935 1.02h18.2V108h-28.8v-4.8l12.82-7.5c2.2-1.307 3.88-2.393 5.04-3.26 1.174-.867 2.014-1.68 2.52-2.44a4.38 4.38 0 0 0 .76-2.48c0-.933-.26-1.76-.78-2.48-.506-.72-1.273-1.28-2.3-1.68-1.013-.413-2.253-.62-3.72-.62-2.546 0-4.473.54-5.78 1.62-1.306 1.067-2.053 2.467-2.24 4.2h-6.78c.16-2.24.9-4.2 2.22-5.88 1.32-1.693 3.087-2.993 5.3-3.9 2.227-.92 4.734-1.38 7.52-1.38 2.627 0 4.947.413 6.96 1.24 2.027.813 3.594 1.96 4.7 3.44 1.12 1.467 1.68 3.16 1.68 5.08a7.93 7.93 0 0 1-1.16 4.18c-.76 1.28-1.973 2.56-3.64 3.84-1.666 1.267-3.92 2.66-6.76 4.18l-5.76 3.16Zm38.081 6.08c-3.307 0-6.193-.647-8.66-1.94-2.467-1.293-4.367-3.113-5.7-5.46-1.333-2.36-2-5.093-2-8.2 0-3.107.667-5.833 2-8.18 1.333-2.36 3.233-4.187 5.7-5.48 2.467-1.293 5.353-1.94 8.66-1.94 3.293 0 6.167.647 8.62 1.94 2.467 1.293 4.367 3.12 5.7 5.48 1.333 2.347 2 5.073 2 8.18 0 3.107-.667 5.84-2 8.2-1.333 2.347-3.233 4.167-5.7 5.46-2.453 1.293-5.327 1.94-8.62 1.94Zm0-5.54c1.987 0 3.693-.393 5.12-1.18 1.427-.8 2.513-1.953 3.26-3.46.76-1.507 1.14-3.313 1.14-5.42 0-2.107-.38-3.913-1.14-5.42-.747-1.507-1.833-2.653-3.26-3.44-1.427-.8-3.133-1.2-5.12-1.2-2.013 0-3.74.393-5.18 1.18-1.427.787-2.52 1.933-3.28 3.44-.747 1.507-1.12 3.32-1.12 5.44 0 2.12.373 3.933 1.12 5.44.76 1.507 1.853 2.653 3.28 3.44 1.44.787 3.167 1.18 5.18 1.18Zm30.747-.54h18.2V108h-28.8v-4.8l12.82-7.5c2.2-1.307 3.88-2.393 5.04-3.26 1.174-.867 2.014-1.68 2.52-2.44a4.38 4.38 0 0 0 .76-2.48c0-.933-.26-1.76-.78-2.48-.506-.72-1.273-1.28-2.3-1.68-1.013-.413-2.253-.62-3.72-.62-2.546 0-4.473.54-5.78 1.62-1.306 1.067-2.053 2.467-2.24 4.2h-6.78c.16-2.24.9-4.2 2.22-5.88 1.32-1.693 3.087-2.993 5.3-3.9 2.227-.92 4.734-1.38 7.52-1.38 2.627 0 4.947.413 6.96 1.24 2.027.813 3.594 1.96 4.7 3.44 1.12 1.467 1.68 3.16 1.68 5.08a7.93 7.93 0 0 1-1.16 4.18c-.76 1.28-1.973 2.56-3.64 3.84-1.666 1.267-3.92 2.66-6.76 4.18l-5.76 3.16Zm43.701-10.06c2.28.413 4.034 1.207 5.26 2.38 1.24 1.16 1.86 2.653 1.86 4.48 0 1.813-.573 3.42-1.72 4.82-1.133 1.4-2.793 2.493-4.98 3.28-2.173.787-4.773 1.18-7.8 1.18-2.986 0-5.606-.42-7.86-1.26-2.24-.853-3.993-2.053-5.26-3.6-1.266-1.56-1.946-3.38-2.04-5.46h6.78c.227 1.627 1.034 2.867 2.42 3.72 1.4.84 3.387 1.26 5.96 1.26 2.48 0 4.367-.387 5.66-1.16 1.294-.773 1.94-1.867 1.94-3.28 0-.84-.226-1.533-.68-2.08-.44-.547-1.173-.96-2.2-1.24-1.013-.28-2.386-.42-4.12-.42h-5.3v-4.76h5.3c2.2 0 3.814-.327 4.84-.98 1.027-.653 1.54-1.567 1.54-2.74 0-1.24-.566-2.193-1.7-2.86-1.12-.667-2.8-1-5.04-1-2.293 0-4.1.407-5.42 1.22-1.32.813-2.113 1.98-2.38 3.5h-6.8c.16-1.893.847-3.6 2.06-5.12 1.214-1.533 2.914-2.74 5.1-3.62 2.2-.88 4.8-1.32 7.8-1.32 2.654 0 4.98.347 6.98 1.04 2 .68 3.54 1.647 4.62 2.9 1.094 1.253 1.64 2.7 1.64 4.34 0 1.613-.546 3.02-1.64 4.22-1.08 1.187-2.686 2.04-4.82 2.56Z"/><defs><filter id="a" width="342" height="157" x="-11" y="-11" color-interpolation-filters="sRGB" filterUnits="userSpaceOnUse"><feFlood flood-opacity="0" result="BackgroundImageFix"/><feGaussianBlur in="BackgroundImageFix" stdDeviation="5.5"/><feComposite in2="SourceAlpha" operator="in" result="effect1_backgroundBlur_187_1337"/><feBlend in="SourceGraphic" in2="effect1_backgroundBlur_187_1337" result="shape"/></filter></defs></svg>
